X: 1
T: Stenvalsen
O: trad.
R: waltz
Z: John Chambers <jc:trillian.mit.edu>
M: 3/4
L: 1/8
K: D
AG \
|: "D"F2 FE FG | A2 F2 D2 | "G"G2 GF GA | "Em"B4 d2 \
| "A7"c2 cB cd | e2 c2 A2 |1,3 "D"d2 dc de | fe dc BA :|2,4 "D"d3 edc | d3 :|
|: efg \
| "D"a4 ag | f2 g2 a2 | "G"b4 ba | "Em"g3 agf \
| "A7"f2 e2 e2 | e2 f2 g2 | b2 a2 ^g2 | "(D)"a3 bag |
| "D"f2 d2 d2 | d3 edc | "G"B2 G2 G2 | "Em"B3 dcB \
| "A7"A^G AB cd | ef ge ce | "D"d3 edc | d3 :|

%%sep 1 1 500

